outputs/icons/hardware/phone_android_sharp.svg

<svg xmlns="http://www.w3.org/2000/svg" width="1200" height="1200" fill="none"><g clip-path="url(#a)"><path fill="#000" d="M950 50H250v1100h700zM700 1050H500v-50h200zm150-150H350V200h500z"/></g><defs><clipPath id="a"><path fill="#fff" d="M0 0h1200v1200H0z"/></clipPath></defs></svg>

<svg width="1200" height="1200" viewBox="0 0 1200 1200" fill="none" xmlns="http://www.w3.org/2000/svg"><g clip-path="url(#clip0_133_36)"><path d="M950 50H250V1150H950V50ZM700 1050H500V1000H700V1050ZM850 900H350V200H850V900Z" fill="#1D1E23"/></g><defs><clipPath id="clip0_133_36"><path width="24" fill="white" d="M0 0H1200V1200H0V0z"/></clipPath></defs></svg>
